images/client-logo-6.svg

<svg width="89" height="46" viewBox="0 0 89 46" fill="none" xmlns="http://www.w3.org/2000/svg">
<path d="M44.7405 21.3533C44.3226 20.7432 44.1226 20.022 44.1701 19.2962V16.3135C44.1701 15.3992 44.3592 14.7044 44.7373 14.2291C45.1155 13.7537 45.7651 13.517 46.686 13.5191C47.5513 13.5191 48.1656 13.7213 48.5288 14.1259C48.925 14.6421 49.1178 15.2733 49.0736 15.91V16.6109H47.5256V15.9009C47.5311 15.6685 47.5161 15.4361 47.4808 15.2061C47.4585 15.0488 47.3806 14.9033 47.2596 14.7934C47.1007 14.675 46.9004 14.6175 46.6988 14.6326C46.4867 14.6176 46.2764 14.6782 46.1091 14.8025C45.9742 14.9243 45.8844 15.0838 45.8527 15.2576C45.8083 15.5011 45.7879 15.7479 45.7918 15.995V19.6147C45.7674 19.964 45.8357 20.3134 45.9905 20.6312C46.0675 20.7387 46.1744 20.824 46.2994 20.8775C46.4244 20.9311 46.5626 20.9508 46.6988 20.9346C46.8971 20.9501 47.0939 20.8912 47.2468 20.7708C47.373 20.6523 47.4541 20.4976 47.4776 20.3308C47.5137 20.0907 47.5298 19.8482 47.5256 19.6056V18.8714H49.0736V19.5419C49.1171 20.2056 48.929 20.8644 48.5384 21.4171C48.1827 21.86 47.5769 22.0815 46.686 22.0815C45.795 22.0815 45.1219 21.8449 44.7405 21.3533Z" fill="#AFB1B8"/>
<path d="M51.1857 21.3837C50.7947 20.9194 50.5992 20.2428 50.5992 19.3477V16.2104C50.5992 15.3244 50.7947 14.6538 51.1857 14.1987C51.5767 13.7436 52.2305 13.517 53.1471 13.5191C54.0573 13.5191 54.7079 13.7456 55.0989 14.1987C55.4899 14.6538 55.6886 15.3244 55.6886 16.2104V19.3477C55.6886 20.2337 55.4899 20.9134 55.0925 21.3806C54.6951 21.8479 54.0477 22.0815 53.1471 22.0815C52.2466 22.0815 51.5799 21.8449 51.1857 21.3837ZM53.8682 20.6312C54.0083 20.3404 54.072 20.0219 54.0541 19.7027V15.8615C54.0721 15.5485 54.0094 15.2361 53.8714 14.9512C53.7929 14.8414 53.6833 14.7547 53.5553 14.7011C53.4272 14.6474 53.2858 14.629 53.1471 14.6478C53.0081 14.6294 52.8664 14.6481 52.7379 14.7017C52.6094 14.7553 52.4992 14.8417 52.4196 14.9512C52.2787 15.2353 52.2148 15.5481 52.2337 15.8615V19.7209C52.2143 20.0402 52.2781 20.3591 52.4196 20.6494C52.5099 20.7473 52.6212 20.8257 52.7461 20.8795C52.8711 20.9332 53.0067 20.961 53.1439 20.961C53.2812 20.961 53.4168 20.9332 53.5417 20.8795C53.6666 20.8257 53.778 20.7473 53.8682 20.6494V20.6312Z" fill="#AFB1B8"/>
<path d="M57.5505 13.6106H59.2171L60.4702 19.3992L61.7522 13.6106H63.3739L63.5374 21.9658H62.3387L62.2105 16.159L60.9734 21.9658H60.0119L58.7299 16.1378L58.6114 21.9658H57.3999L57.5505 13.6106Z" fill="#AFB1B8"/>
<path d="M65.4059 13.6106H68.0018C69.4974 13.6106 70.2452 14.4014 70.2452 15.9831C70.2452 17.498 69.4579 18.2544 67.8832 18.2524H66.9987V21.9658H65.3962L65.4059 13.6106ZM67.6236 17.1814C67.782 17.2005 67.9428 17.1867 68.0949 17.1411C68.2471 17.0956 68.387 17.0193 68.505 16.9175C68.6887 16.6353 68.7698 16.3039 68.7357 15.974C68.7441 15.7191 68.7183 15.4642 68.6588 15.2155C68.636 15.1324 68.5959 15.0545 68.5408 14.9863C68.4858 14.918 68.417 14.8608 68.3383 14.8181C68.1159 14.7171 67.87 14.6711 67.6236 14.6846H67.0019V17.1814H67.6236Z" fill="#AFB1B8"/>
<path d="M72.5561 13.6106H74.2771L76.043 21.9658H74.5495L74.2002 20.0393H72.665L72.3061 21.9658H70.7902L72.5561 13.6106ZM74.0271 19.0715L73.4278 15.5644L72.8285 19.0715H74.0271Z" fill="#AFB1B8"/>
<path d="M77.4691 13.6106H78.5909L80.7382 18.3768V13.6106H82.0682V21.9658H81.001L78.8409 16.9903V21.9658H77.4659L77.4691 13.6106Z" fill="#AFB1B8"/>
<path d="M85.1834 18.7801L83.3983 13.6223H84.9014L85.9911 16.9354L87.0134 13.6223H88.4845L86.7218 18.7801V21.9658H85.1834V18.7801Z" fill="#AFB1B8"/>
<path d="M47.2148 25.6189V26.0558H45.9072V29.4509H45.3592V26.0558H44.0452V25.6189H47.2148Z" fill="#AFB1B8"/>
<path d="M51.3138 29.4512H50.8908C50.8478 29.4537 50.8054 29.4407 50.7722 29.4148C50.7402 29.3925 50.7157 29.362 50.7017 29.3268L50.3235 28.4166H48.5095L48.1313 29.3268C48.1206 29.3649 48.1008 29.4001 48.0736 29.43C48.0401 29.4554 47.9979 29.4683 47.955 29.4664H47.532L49.1345 25.6345H49.6921L51.3138 29.4512ZM48.6601 28.0283H50.1729L49.5319 26.4688C49.4846 26.3509 49.445 26.2303 49.4133 26.1078C49.3909 26.1806 49.3716 26.2504 49.3524 26.3111L49.2947 26.4719L48.6601 28.0283Z" fill="#AFB1B8"/>
<path d="M54.0765 29.0748C54.1769 29.0798 54.2774 29.0798 54.3778 29.0748C54.4644 29.0664 54.5502 29.0512 54.6342 29.0293C54.7127 29.0111 54.7898 28.9878 54.8649 28.9595C54.9354 28.9322 55.0059 28.8988 55.0797 28.8655V28.0037H54.4387C54.4228 28.0046 54.407 28.0023 54.3921 27.9971C54.3772 27.9919 54.3636 27.9838 54.3521 27.9734C54.3416 27.9648 54.3333 27.954 54.3277 27.9419C54.3222 27.9299 54.3196 27.9167 54.3201 27.9036V27.6093H55.5636V29.0779C55.4621 29.1466 55.3549 29.2075 55.2431 29.2599C55.1288 29.3133 55.0098 29.357 54.8874 29.3904C54.7563 29.4269 54.6223 29.4533 54.4867 29.4693C54.3314 29.4856 54.1752 29.4937 54.0188 29.4936C53.7424 29.4958 53.4682 29.4473 53.2112 29.351C52.9712 29.2596 52.7532 29.1234 52.5702 28.9504C52.3918 28.7757 52.2513 28.5695 52.1568 28.3436C52.0557 28.0896 52.0057 27.8199 52.0093 27.5486C52.006 27.2755 52.0548 27.0041 52.1536 26.7475C52.2457 26.5204 52.3865 26.3138 52.567 26.1406C52.7499 25.9682 52.968 25.833 53.208 25.7431C53.4824 25.6454 53.7737 25.597 54.0669 25.6005C54.2161 25.6003 54.3651 25.6115 54.5124 25.6339C54.6426 25.654 54.7704 25.6865 54.8938 25.731C55.0059 25.7709 55.1133 25.8217 55.2143 25.8827C55.3125 25.9426 55.4057 26.0095 55.4931 26.083L55.3393 26.3197C55.3272 26.3413 55.3093 26.3594 55.2873 26.3722C55.2653 26.3851 55.2401 26.392 55.2143 26.3925C55.1788 26.3914 55.1444 26.3809 55.1149 26.3621C55.0668 26.3379 55.0156 26.3075 54.9579 26.2711C54.8897 26.2307 54.8179 26.1961 54.7431 26.1679C54.6476 26.1317 54.549 26.1032 54.4483 26.083C54.314 26.0596 54.1777 26.0484 54.0413 26.0496C53.8298 26.0474 53.6199 26.0834 53.4227 26.1558C53.2444 26.2235 53.0836 26.3271 52.9516 26.4592C52.8188 26.597 52.7173 26.7592 52.6535 26.9356C52.5103 27.3507 52.5103 27.7981 52.6535 28.2131C52.7237 28.3933 52.8328 28.5576 52.974 28.6955C53.1055 28.827 53.265 28.9304 53.4419 28.999C53.6457 29.0652 53.8617 29.091 54.0765 29.0748Z" fill="#AFB1B8"/>
<path d="M59.1851 29.014H60.9351V29.4509H58.6499V25.6189H59.198L59.1851 29.014Z" fill="#AFB1B8"/>
<path d="M62.7555 29.4509H62.2074V25.6189H62.7555V29.4509Z" fill="#AFB1B8"/>
<path d="M64.7938 25.6371C64.8263 25.6547 64.8547 25.6785 64.8771 25.7069L67.2199 28.5955C67.2167 28.5501 67.2167 28.5045 67.2199 28.459C67.2199 28.4165 67.2199 28.374 67.2199 28.3346V25.6038H67.6974V29.4512H67.4218C67.3809 29.4543 67.34 29.447 67.3032 29.43C67.2699 29.4109 67.2406 29.3862 67.2167 29.3571L64.8771 26.4716C64.8771 26.5171 64.8771 26.5595 64.8771 26.602C64.8771 26.6445 64.8771 26.684 64.8771 26.7204V29.4512H64.4188V25.6189H64.7041C64.735 25.619 64.7656 25.6252 64.7938 25.6371Z" fill="#AFB1B8"/>
<path d="M71.7324 25.6189V26.0406H69.7903V27.3059H71.3639V27.7124H69.7903V29.0202H71.7324V29.4419H69.2262V25.6189H71.7324Z" fill="#AFB1B8"/>
<path d="M14.3035 1.95391L38.6385 8.49527V31.4173L14.3035 24.879V1.95391ZM12.7427 0V25.9925L40.1961 33.3743V7.38482L12.7427 0Z" fill="#AFB1B8"/>
<path d="M27.4565 45.4402L0 38.0522V12.0625L27.4565 19.4474V45.4402Z" fill="#AFB1B8"/>
<path d="M13.1978 1.65958L37.2155 8.11891L27.0014 17.7912L2.98057 11.3288L13.1978 1.65958ZM12.7427 0L0 12.0631L27.4565 19.4478L40.196 7.38469L12.7427 0Z" fill="#AFB1B8"/>
<path d="M29.0013 43.978L40.196 33.3774L29.0013 30.3647V43.978Z" fill="#AFB1B8"/>
</svg>

<svg width="89" height="46" fill="none" xmlns="http://www.w3.org/2000/svg"><path d="M44.74 21.353a3.258 3.258 0 01-.57-2.057v-2.982c0-.915.19-1.61.567-2.085.378-.475 1.028-.712 1.949-.71.865 0 1.48.202 1.843.607.396.516.589 1.147.545 1.784v.7h-1.548v-.71a3.961 3.961 0 00-.045-.694.689.689 0 00-.221-.413.836.836 0 00-.561-.16.886.886 0 00-.59.17.81.81 0 00-.256.455c-.045.243-.065.49-.061.737v3.62a2 2 0 00.198 1.016.735.735 0 00.31.247.78.78 0 00.399.057.788.788 0 00.548-.164.747.747 0 00.23-.44c.037-.24.053-.483.049-.725v-.735h1.548v.67a2.914 2.914 0 01-.536 1.876c-.355.443-.961.664-1.852.664-.891 0-1.564-.236-1.946-.728zM51.186 21.384c-.391-.465-.587-1.141-.587-2.036V16.21c0-.886.196-1.556.587-2.011.39-.455 1.044-.682 1.961-.68.91 0 1.56.227 1.952.68.39.455.59 1.125.59 2.011v3.138c0 .886-.2 1.565-.596 2.033-.398.467-1.045.7-1.946.7-.9 0-1.567-.236-1.961-.697zm2.682-.753c.14-.29.204-.61.186-.928v-3.841a1.843 1.843 0 00-.183-.91.738.738 0 00-.316-.25.785.785 0 00-.408-.054.794.794 0 00-.41.054.749.749 0 00-.317.25c-.141.283-.205.596-.186.91v3.859c-.02.32.044.638.186.928a.96.96 0 00.326.23 1.009 1.009 0 00.796 0 .96.96 0 00.326-.23v-.018zM57.55 13.61h1.667l1.253 5.79 1.282-5.79h1.622l.163 8.356H62.34l-.128-5.807-1.238 5.807h-.961l-1.282-5.828-.119 5.828H57.4l.15-8.355zM65.406 13.61h2.596c1.495 0 2.243.791 2.243 2.373 0 1.515-.787 2.271-2.362 2.27H67v3.713h-1.603l.01-8.355zm2.218 3.571c.158.02.319.006.47-.04.153-.045.293-.122.411-.223.184-.283.265-.614.23-.944a2.854 2.854 0 00-.076-.758.63.63 0 00-.118-.23.67.67 0 00-.203-.168 1.528 1.528 0 00-.714-.133h-.622v2.496h.622zM72.556 13.61h1.721l1.766 8.356h-1.494l-.349-1.927h-1.535l-.359 1.927H70.79l1.766-8.355zm1.471 5.462l-.6-3.508-.599 3.508h1.2zM77.47 13.61h1.12l2.148 4.767V13.61h1.33v8.355h-1.067l-2.16-4.976v4.976h-1.375l.003-8.355zM85.183 18.78l-1.785-5.158h1.503l1.09 3.313 1.022-3.313h1.471l-1.762 5.158v3.186h-1.539V18.78zM47.215 25.619v.437h-1.308v3.395h-.548v-3.395h-1.314v-.437h3.17zM51.314 29.451h-.423a.176.176 0 01-.119-.036.196.196 0 01-.07-.088l-.378-.91H48.51l-.379.91a.257.257 0 01-.057.103.183.183 0 01-.119.036h-.423l1.603-3.832h.557l1.622 3.817zm-2.654-1.423h1.513l-.641-1.56a2.964 2.964 0 01-.119-.36l-.06.203-.058.16-.635 1.557zM54.077 29.075c.1.005.2.005.3 0 .087-.009.173-.024.257-.046a1.82 1.82 0 00.23-.07c.071-.027.142-.06.216-.093v-.862h-.641a.12.12 0 01-.087-.03.084.084 0 01-.032-.07v-.295h1.244v1.469a2.355 2.355 0 01-.677.312 2.653 2.653 0 01-.4.08 4.455 4.455 0 01-.468.024 2.252 2.252 0 01-.808-.143 1.935 1.935 0 01-.64-.4 1.849 1.849 0 01-.414-.607 2.074 2.074 0 01-.148-.795 2.155 2.155 0 01.145-.802c.092-.227.232-.433.413-.606.183-.173.401-.308.641-.398.274-.098.566-.146.859-.142.15 0 .298.01.445.033.13.02.258.052.382.097.112.04.22.09.32.152.099.06.192.127.28.2l-.155.237a.14.14 0 01-.052.052.15.15 0 01-.073.02.196.196 0 01-.1-.03 1.906 1.906 0 01-.156-.09 1.369 1.369 0 00-.215-.104 1.869 1.869 0 00-.295-.085 2.256 2.256 0 00-.407-.033 1.743 1.743 0 00-.618.106c-.179.068-.34.171-.471.303-.133.138-.235.3-.298.477a1.953 1.953 0 000 1.277c.07.18.179.345.32.482.132.132.291.235.468.304.204.066.42.092.635.076zM59.185 29.014h1.75v.437H58.65v-3.832h.548l-.013 3.395zM62.755 29.45h-.548V25.62h.548v3.832zM64.794 25.637a.27.27 0 01.083.07l2.343 2.889a.972.972 0 010-.137v-2.855h.477v3.847h-.275a.24.24 0 01-.119-.021.314.314 0 01-.086-.073l-2.34-2.885v2.979h-.458V25.62h.285c.031 0 .062.006.09.018zM71.732 25.619v.422H69.79v1.265h1.574v.406H69.79v1.308h1.942v.422h-2.506v-3.823h2.506zM14.303 1.954l24.335 6.541v22.922L14.305 24.88V1.954zM12.743 0v25.992l27.453 7.382V7.384L12.743 0z" fill="#AFB1B8"/><path d="M27.456 45.44L0 38.052v-25.99l27.456 7.385V45.44z" fill="#AFB1B8"/><path d="M13.198 1.66l24.017 6.459-10.214 9.672-24.02-6.462 10.217-9.67zM12.743 0L0 12.063l27.456 7.385 12.74-12.063L12.743 0zM29.001 43.978l11.195-10.6-11.195-3.013v13.613z" fill="#AFB1B8"/></svg>
